src/assets/icons/science-history,fancy,rocket.svg

<svg width="48" height="48" viewBox="0 0 48 48" fill="none" xmlns="http://www.w3.org/2000/svg">
<g clip-path="url(#clip0_47:650)">
<rect opacity="0.2" x="18.1162" y="16.1885" width="19" height="2.37507" transform="rotate(45 18.1162 16.1885)" fill="black"/>
<path opacity="0.2" fill-rule="evenodd" clip-rule="evenodd" d="M43.012 14.2044C42.7724 15.0523 42.4822 15.8839 42.1437 16.6949L31.0442 5.59545C31.8552 5.25687 32.6869 4.96676 33.5347 4.72707L43.012 14.2044Z" fill="black"/>
<g opacity="0.6">
<path d="M31.2632 5.81596C28.1435 7.11851 25.2801 9.02458 22.85 11.4547L18.1161 16.1885L31.5512 29.6236L36.285 24.8897C38.7151 22.4596 40.6212 19.5962 41.9238 16.4765L31.2632 5.81596Z" fill="black"/>
<path d="M16.4362 17.8685L29.8712 31.3035L27.3512 33.8235C26.4234 34.7513 24.9194 34.7516 23.9919 33.8241L13.9156 23.7478C12.9881 22.8203 12.9884 21.3163 13.9162 20.3885L16.4362 17.8685Z" fill="black"/>
</g>
<path d="M33.7344 4.9267C35.6904 4.33231 37.7231 3.96529 39.7935 3.84313L41.4857 3.74329C42.9055 3.65952 44.0798 4.8338 43.9961 6.25365L43.8962 7.94586C43.7741 10.0163 43.407 12.0489 42.8126 14.0049L33.7344 4.9267Z" fill="black"/>
<path d="M34.5288 36.4064L35.751 25.4238L27.3511 33.8237L31.1268 37.5994C32.3125 38.7851 34.3433 38.073 34.5288 36.4064Z" fill="black"/>
<path d="M11.3338 13.2105L22.3164 11.9883L13.9165 20.3882L10.1408 16.6124C8.9551 15.4267 9.66725 13.396 11.3338 13.2105Z" fill="black"/>
<path d="M12.4432 24.8185L15.2219 25.0539L22.6858 32.5178L22.9212 35.2965C22.9999 36.2254 21.8769 36.7472 21.2177 36.088L11.6517 26.522C10.9925 25.8628 11.5143 24.7398 12.4432 24.8185Z" fill="black"/>
<circle opacity="0.4" cx="21" cy="39" r="1" fill="black"/>
<circle opacity="0.4" cx="13" cy="43" r="1" fill="black"/>
<circle opacity="0.4" cx="7" cy="32" r="1" fill="black"/>
<circle opacity="0.4" cx="5" cy="38" r="1" fill="black"/>
<path opacity="0.4" d="M5.90736 41.6668L11.4445 27.4283C11.7063 26.7554 12.5731 26.5731 13.0837 27.0837L20.9939 34.9939C21.4837 35.4837 21.3393 36.3109 20.7126 36.6058L7.26517 42.934C6.44796 43.3186 5.58001 42.5085 5.90736 41.6668Z" fill="black"/>
</g>
<defs>
<clipPath id="clip0_47:650">
<rect width="48" height="48" fill="white"/>
</clipPath>
</defs>
</svg>

<svg xmlns="http://www.w3.org/2000/svg" width="48" height="48" fill="none" viewBox="0 0 48 48">
  <g clip-path="url(#clip0_47:650)">
    <path fill="#000" d="M18.116 16.189L31.55 29.624l-1.68 1.68-13.435-13.436z" opacity=".2"/>
    <path fill="#000" fill-rule="evenodd" d="M43.012 14.204c-.24.848-.53 1.68-.868 2.49l-11.1-11.099a22.001 22.001 0 012.49-.868l9.478 9.477z" clip-rule="evenodd" opacity=".2"/>
    <g opacity=".6">
      <path fill="#000" d="M31.263 5.816a26.14 26.14 0 00-8.413 5.639l-4.734 4.734 13.435 13.435 4.734-4.734a26.14 26.14 0 005.639-8.413L31.264 5.816zM16.436 17.869l13.435 13.434-2.52 2.52a2.375 2.375 0 01-3.36.001L13.917 23.748a2.375 2.375 0 010-3.36l2.52-2.52z"/>
    </g>
    <path fill="#000" d="M33.734 4.927a26.13 26.13 0 016.06-1.084l1.692-.1a2.375 2.375 0 012.51 2.51l-.1 1.693a26.125 26.125 0 01-1.083 6.059l-9.079-9.078zM34.529 36.406l1.222-10.982-8.4 8.4 3.776 3.775c1.186 1.186 3.216.474 3.402-1.193zM11.334 13.21l10.982-1.222-8.4 8.4-3.775-3.776c-1.186-1.185-.474-3.216 1.193-3.401zM12.443 24.819l2.779.235 7.464 7.464.235 2.779c.079.928-1.044 1.45-1.703.791l-9.566-9.566c-.66-.66-.138-1.782.791-1.703z"/>
    <circle cx="21" cy="39" r="1" fill="#000" opacity=".4"/>
    <circle cx="13" cy="43" r="1" fill="#000" opacity=".4"/>
    <circle cx="7" cy="32" r="1" fill="#000" opacity=".4"/>
    <circle cx="5" cy="38" r="1" fill="#000" opacity=".4"/>
    <path fill="#000" d="M5.907 41.667l5.537-14.239a1 1 0 011.64-.344l7.91 7.91a1 1 0 01-.281 1.612L7.265 42.934c-.817.385-1.685-.425-1.358-1.267z" opacity=".4"/>
  </g>
  <defs>
    <clipPath id="clip0_47:650">
      <path fill="#fff" d="M0 0h48v48H0z"/>
    </clipPath>
  </defs>
</svg>
